; generated by Slic3r 1.35.5.16-prusa3d-win64 on 2017-07-22 at 21:06:21

; 

; external perimeters extrusion width = 0.45mm
; perimeters extrusion width = 0.45mm
; infill extrusion width = 0.45mm
; solid infill extrusion width = 0.45mm
; top infill extrusion width = 0.40mm
; support material extrusion width = 0.35mm
; first layer extrusion width = 0.42mm

M107
M115 U3.0.9 ; tell printer latest fw version
M83  ; extruder relative mode
M104 S215 ; set extruder temp
M140 S55 ; set bed temp
M190 S55 ; wait for bed temp
M109 S215 ; wait for extruder temp
G28 W ; home all without mesh bed level
G80 ; mesh bed leveling
G1 Y-3.0 F1000.0 ; go outside pritn area
G1 X60.0 E9.0  F1000.0 ; intro line
G1 X100.0 E12.5  F1000.0 ; intro line
; Filament gcode

G21 ; set units to millimeters
G90 ; use absolute coordinates
M83 ; use relative distances for extrusion
M106 S216.75
G1 E-0.80000 F2100.00000
G1 Z0.200 F7200.000
G1 X101.724 Y85.692 F7200.000
G1 E0.80000 F2100.00000
M204 S1000
G1 F2100
G1 X103.797 Y83.436 E0.10086
G1 X106.090 Y81.399 E0.10098
G1 X108.571 Y79.609 E0.10073
G1 X111.224 Y78.077 E0.10086
G1 X113.983 Y76.836 E0.09960
G1 X116.889 Y75.866 E0.10086
G1 X118.953 Y75.368 E0.06990
G1 X121.944 Y74.912 E0.09960
G1 X125.007 Y74.757 E0.10098
G1 X128.059 Y74.912 E0.10061
G1 X131.088 Y75.376 E0.10086
G1 X134.053 Y76.143 E0.10086
G1 X136.891 Y77.192 E0.09961
G1 X139.644 Y78.538 E0.10086
G1 X141.464 Y79.630 E0.06990
G1 X143.916 Y81.402 E0.09960
G1 X146.231 Y83.461 E0.10199
G1 X148.280 Y85.692 E0.09973
G1 X150.113 Y88.146 E0.10086
G1 X151.688 Y90.770 E0.10073
G1 X152.991 Y93.543 E0.10086
G1 X154.006 Y96.433 E0.10086
G1 X154.724 Y99.411 E0.10086
G1 X155.137 Y102.447 E0.10086
G1 X155.241 Y105.472 E0.09964
G1 X155.034 Y108.565 E0.10208
G1 X154.527 Y111.548 E0.09961
G1 X153.995 Y113.603 E0.06990
G1 X152.976 Y116.492 E0.10086
G1 X151.688 Y119.230 E0.09960
G1 X150.111 Y121.857 E0.10086
G1 X148.280 Y124.308 E0.10073
G1 X146.207 Y126.563 E0.10086
G1 X143.917 Y128.598 E0.10086
G1 X141.464 Y130.370 E0.09961
G1 X139.644 Y131.462 E0.06990
G1 X136.891 Y132.808 E0.10086
G1 X134.054 Y133.857 E0.09960
G1 X131.088 Y134.624 E0.10086
G1 X128.063 Y135.088 E0.10073
G1 X125.000 Y135.243 E0.10098
G1 X121.944 Y135.088 E0.10073
G1 X118.916 Y134.624 E0.10086
G1 X115.950 Y133.857 E0.10086
G1 X113.112 Y132.808 E0.09961
G1 X110.329 Y131.445 E0.10202
G1 X107.758 Y129.845 E0.09969
G1 X105.333 Y127.973 E0.10086
G1 X103.770 Y126.537 E0.06990
G1 X101.724 Y124.308 E0.09960
G1 X99.890 Y121.854 E0.10086
G1 X98.316 Y119.230 E0.10073
G1 X97.013 Y116.457 E0.10086
G1 X95.997 Y113.567 E0.10086
G1 X95.280 Y110.589 E0.10086
G1 X94.867 Y107.553 E0.10086
G1 X94.763 Y104.529 E0.09961
G1 X94.970 Y101.435 E0.10211
G1 X95.476 Y98.452 E0.09961
G1 X96.009 Y96.397 E0.06990
G1 X97.028 Y93.508 E0.10086
G1 X98.316 Y90.770 E0.09960
G1 X99.892 Y88.143 E0.10086
G1 X101.688 Y85.740 E0.09876

G1 F5760
G1 X103.169 Y84.122 E-0.76000
G1 E-0.04000 F2100.00000
G1 X104.342 Y87.867 F7200.000
G1 E0.80000 F2100.00000
G1 F1680
G1 X104.935 Y87.176 E0.03000
G1 X105.548 Y86.508 E0.02985
G1 X106.184 Y85.862 E0.02985
G1 X106.841 Y85.237 E0.02985
G1 X107.519 Y84.635 E0.02985
G1 X108.217 Y84.056 E0.02985
G1 X108.934 Y83.501 E0.02985
G1 X109.669 Y82.971 E0.02985
G1 X110.419 Y82.467 E0.02974
G1 X111.552 Y81.778 E0.04365
G1 X112.779 Y81.104 E0.04610
G1 X113.590 Y80.707 E0.02973
G1 X114.417 Y80.335 E0.02985
G1 X115.253 Y79.993 E0.02973
G1 X116.572 Y79.522 E0.04610
G1 X117.839 Y79.133 E0.04365
G1 X118.714 Y78.907 E0.02975
G1 X119.599 Y78.709 E0.02985
G1 X120.490 Y78.542 E0.02985
G1 X121.386 Y78.405 E0.02985
G1 X122.286 Y78.298 E0.02985
G1 X123.190 Y78.221 E0.02985
G1 X124.092 Y78.176 E0.02973
G1 X125.492 Y78.168 E0.04610
G1 X126.817 Y78.222 E0.04365
G1 X127.717 Y78.298 E0.02975
G1 X128.617 Y78.405 E0.02985
G1 X129.514 Y78.542 E0.02985
G1 X130.401 Y78.709 E0.02973
G1 X131.764 Y79.030 E0.04610
G1 X133.040 Y79.392 E0.04365
G1 X133.897 Y79.677 E0.02975
G1 X134.747 Y79.992 E0.02985
G1 X135.586 Y80.335 E0.02985
G1 X136.413 Y80.707 E0.02985
G1 X137.227 Y81.106 E0.02985
G1 X138.027 Y81.533 E0.02985
G1 X138.812 Y81.986 E0.02985
G1 X139.582 Y82.465 E0.02985
G1 X140.335 Y82.971 E0.02985
G1 X141.070 Y83.501 E0.02985
G1 X141.787 Y84.056 E0.02985
G1 X142.485 Y84.635 E0.02985
G1 X143.162 Y85.237 E0.02985
G1 X143.820 Y85.862 E0.02985
G1 X144.453 Y86.506 E0.02973
G1 X145.388 Y87.548 E0.04610
G1 X146.226 Y88.571 E0.04354
G1 X147.049 Y89.700 E0.04599
G1 X147.779 Y90.802 E0.04354
G1 X148.484 Y92.009 E0.04599
G1 X149.100 Y93.183 E0.04365
G1 X149.484 Y94.000 E0.02975
G1 X149.842 Y94.834 E0.02985
G1 X150.171 Y95.678 E0.02985
G1 X150.472 Y96.534 E0.02985
G1 X150.743 Y97.399 E0.02985
G1 X150.985 Y98.272 E0.02985
G1 X151.197 Y99.154 E0.02985
G1 X151.380 Y100.042 E0.02985
G1 X151.532 Y100.936 E0.02985
G1 X151.654 Y101.834 E0.02985
G1 X151.746 Y102.736 E0.02985
G1 X151.807 Y103.643 E0.02992
G1 X151.838 Y104.542 E0.02962
G1 X151.838 Y105.458 E0.03016
G1 X151.807 Y106.357 E0.02962
G1 X151.746 Y107.264 E0.02992
G1 X151.655 Y108.162 E0.02973
G1 X151.450 Y109.548 E0.04610
G1 X151.197 Y110.849 E0.04365
G1 X150.985 Y111.728 E0.02975
G1 X150.743 Y112.601 E0.02985
G1 X150.472 Y113.466 E0.02985
G1 X150.171 Y114.322 E0.02985
G1 X149.842 Y115.166 E0.02985
G1 X149.484 Y116.000 E0.02985
G1 X149.099 Y116.820 E0.02985
G1 X148.686 Y117.627 E0.02985
G1 X148.246 Y118.420 E0.02985
G1 X147.779 Y119.197 E0.02985
G1 X147.287 Y119.959 E0.02985
G1 X146.769 Y120.703 E0.02985
G1 X146.226 Y121.429 E0.02985
G1 X145.659 Y122.136 E0.02985
G1 X145.069 Y122.824 E0.02985
G1 X144.455 Y123.492 E0.02985
G1 X143.820 Y124.138 E0.02985
G1 X143.162 Y124.763 E0.02985
G1 X142.485 Y125.365 E0.02985
G1 X141.787 Y125.944 E0.02985
G1 X141.070 Y126.499 E0.02985
G1 X140.337 Y127.027 E0.02973
G1 X139.166 Y127.794 E0.04610
G1 X138.025 Y128.469 E0.04365
G1 X137.227 Y128.894 E0.02975
G1 X136.413 Y129.293 E0.02985
G1 X135.586 Y129.665 E0.02985
G1 X134.750 Y130.007 E0.02973
G1 X133.432 Y130.478 E0.04610
G1 X132.167 Y130.866 E0.04354
G1 X130.811 Y131.200 E0.04599
G1 X129.511 Y131.459 E0.04365
G1 X128.617 Y131.595 E0.02975
G1 X127.717 Y131.702 E0.02985
G1 X126.814 Y131.779 E0.02985
G1 X125.908 Y131.825 E0.02985
G1 X125.002 Y131.840 E0.02985
G1 X124.099 Y131.825 E0.02973
G1 X122.701 Y131.737 E0.04610
G1 X121.383 Y131.595 E0.04365
G1 X120.493 Y131.459 E0.02963
G1 X119.120 Y131.184 E0.04610
G1 X117.833 Y130.865 E0.04365
G1 X116.967 Y130.609 E0.02975
G1 X116.107 Y130.323 E0.02985
G1 X115.256 Y130.008 E0.02985
G1 X114.417 Y129.665 E0.02985
G1 X113.590 Y129.293 E0.02985
G1 X112.776 Y128.894 E0.02985
G1 X111.981 Y128.470 E0.02967
G1 X111.186 Y128.011 E0.03020
G1 X110.422 Y127.535 E0.02967
G1 X109.669 Y127.029 E0.02985
G1 X108.934 Y126.499 E0.02985
G1 X108.217 Y125.944 E0.02985
G1 X107.519 Y125.365 E0.02985
G1 X106.841 Y124.763 E0.02985
G1 X106.184 Y124.138 E0.02985
G1 X105.548 Y123.492 E0.02985
G1 X104.935 Y122.824 E0.02985
G1 X104.344 Y122.136 E0.02985
G1 X103.777 Y121.429 E0.02985
G1 X103.235 Y120.703 E0.02985
G1 X102.717 Y119.959 E0.02985
G1 X102.224 Y119.197 E0.02985
G1 X101.758 Y118.420 E0.02985
G1 X101.318 Y117.627 E0.02985
G1 X100.905 Y116.820 E0.02985
G1 X100.519 Y116.000 E0.02985
G1 X100.162 Y115.166 E0.02985
G1 X99.833 Y114.322 E0.02985
G1 X99.532 Y113.466 E0.02985
G1 X99.261 Y112.601 E0.02985
G1 X99.019 Y111.728 E0.02985
G1 X98.806 Y110.846 E0.02985
G1 X98.624 Y109.958 E0.02985
G1 X98.471 Y109.064 E0.02985
G1 X98.349 Y108.166 E0.02985
G1 X98.257 Y107.264 E0.02985
G1 X98.196 Y106.359 E0.02985
G1 X98.166 Y105.453 E0.02985
G1 X98.166 Y104.547 E0.02985
G1 X98.196 Y103.641 E0.02985
G1 X98.257 Y102.736 E0.02985
G1 X98.349 Y101.834 E0.02985
G1 X98.471 Y100.936 E0.02985
G1 X98.624 Y100.042 E0.02985
G1 X98.806 Y99.154 E0.02985
G1 X99.019 Y98.272 E0.02985
G1 X99.261 Y97.399 E0.02985
G1 X99.532 Y96.534 E0.02985
G1 X99.833 Y95.678 E0.02985
G1 X100.160 Y94.837 E0.02973
G1 X100.728 Y93.557 E0.04610
G1 X101.319 Y92.370 E0.04365
G1 X101.758 Y91.580 E0.02975
G1 X102.224 Y90.803 E0.02985
G1 X102.717 Y90.041 E0.02985
G1 X103.235 Y89.297 E0.02985
G1 X103.777 Y88.571 E0.02985
G1 X104.304 Y87.914 E0.02772

G1 X104.010 Y87.678 F7200.000
G1 F1260
G1 X104.653 Y86.925 E0.03260
G1 X105.275 Y86.248 E0.03027
G1 X105.920 Y85.593 E0.03027
G1 X106.586 Y84.959 E0.03027
G1 X107.273 Y84.349 E0.03027
G1 X107.981 Y83.762 E0.03027
G1 X108.708 Y83.199 E0.03027
G1 X109.454 Y82.661 E0.03027
G1 X110.216 Y82.149 E0.03023
G1 X111.363 Y81.451 E0.04421
G1 X112.606 Y80.770 E0.04666
G1 X113.430 Y80.365 E0.03023
G1 X114.269 Y79.989 E0.03027
G1 X115.118 Y79.641 E0.03023
G1 X116.453 Y79.164 E0.04666
G1 X117.737 Y78.770 E0.04421
G1 X118.626 Y78.540 E0.03023
G1 X119.523 Y78.340 E0.03027
G1 X120.427 Y78.170 E0.03027
G1 X121.335 Y78.031 E0.03027
G1 X122.248 Y77.923 E0.03027
G1 X123.164 Y77.845 E0.03027
G1 X124.081 Y77.798 E0.03023
G1 X125.499 Y77.791 E0.04666
G1 X126.840 Y77.845 E0.04421
G1 X127.755 Y77.923 E0.03023
G1 X128.668 Y78.031 E0.03027
G1 X129.577 Y78.170 E0.03027
G1 X130.479 Y78.340 E0.03023
G1 X131.859 Y78.665 E0.04666
G1 X133.151 Y79.031 E0.04421
G1 X134.022 Y79.321 E0.03023
G1 X134.884 Y79.640 E0.03027
G1 X135.735 Y79.989 E0.03027
G1 X136.574 Y80.365 E0.03027
G1 X137.399 Y80.770 E0.03027
G1 X138.210 Y81.203 E0.03027
G1 X139.006 Y81.662 E0.03027
G1 X139.787 Y82.149 E0.03027
G1 X140.550 Y82.661 E0.03027
G1 X141.296 Y83.199 E0.03027
G1 X142.023 Y83.762 E0.03027
G1 X142.730 Y84.349 E0.03027
G1 X143.418 Y84.959 E0.03027
G1 X144.084 Y85.593 E0.03027
G1 X144.728 Y86.247 E0.03023
G1 X145.674 Y87.302 E0.04666
G1 X146.524 Y88.340 E0.04417
G1 X147.359 Y89.484 E0.04662
G1 X148.099 Y90.603 E0.04417
G1 X148.814 Y91.826 E0.04662
G1 X149.438 Y93.015 E0.04421
G1 X149.828 Y93.846 E0.03023
G1 X150.191 Y94.691 E0.03027
G1 X150.525 Y95.547 E0.03027
G1 X150.829 Y96.415 E0.03027
G1 X151.105 Y97.292 E0.03027
G1 X151.350 Y98.178 E0.03027
G1 X151.565 Y99.072 E0.03027
G1 X151.750 Y99.972 E0.03027
G1 X151.905 Y100.879 E0.03027
G1 X152.029 Y101.790 E0.03027
G1 X152.122 Y102.704 E0.03027
G1 X152.184 Y103.624 E0.03034
G1 X152.215 Y104.536 E0.03004
G1 X152.215 Y105.464 E0.03058
G1 X152.184 Y106.376 E0.03004
G1 X152.122 Y107.296 E0.03034
G1 X152.029 Y108.209 E0.03023
G1 X151.821 Y109.611 E0.04666
G1 X151.565 Y110.929 E0.04421
G1 X151.350 Y111.822 E0.03023
G1 X151.105 Y112.708 E0.03027
G1 X150.829 Y113.585 E0.03027
G1 X150.525 Y114.453 E0.03027
G1 X150.191 Y115.309 E0.03027
G1 X149.828 Y116.154 E0.03027
G1 X149.437 Y116.986 E0.03027
G1 X149.019 Y117.805 E0.03027
G1 X148.572 Y118.609 E0.03027
G1 X148.099 Y119.397 E0.03027
G1 X147.600 Y120.169 E0.03027
G1 X147.075 Y120.923 E0.03027
G1 X146.524 Y121.660 E0.03027
G1 X145.949 Y122.377 E0.03027
G1 X145.351 Y123.075 E0.03027
G1 X144.729 Y123.752 E0.03027
G1 X144.084 Y124.407 E0.03027
G1 X143.418 Y125.041 E0.03027
G1 X142.730 Y125.651 E0.03027
G1 X142.023 Y126.238 E0.03027
G1 X141.296 Y126.801 E0.03027
G1 X140.551 Y127.338 E0.03023
G1 X139.365 Y128.114 E0.04666
G1 X138.209 Y128.798 E0.04421
G1 X137.399 Y129.230 E0.03023
G1 X136.574 Y129.635 E0.03027
G1 X135.735 Y130.011 E0.03027
G1 X134.885 Y130.359 E0.03023
G1 X133.551 Y130.836 E0.04666
G1 X132.268 Y131.229 E0.04417
G1 X130.893 Y131.568 E0.04662
G1 X129.576 Y131.830 E0.04421
G1 X128.668 Y131.969 E0.03023
G1 X127.755 Y132.077 E0.03027
G1 X126.839 Y132.155 E0.03027
G1 X125.921 Y132.202 E0.03027
G1 X125.002 Y132.217 E0.03027
G1 X124.084 Y132.202 E0.03023
G1 X122.669 Y132.113 E0.04666
G1 X121.334 Y131.969 E0.04421
G1 X120.428 Y131.830 E0.03019
G1 X119.038 Y131.552 E0.04666
G1 X117.735 Y131.229 E0.04421
G1 X116.854 Y130.969 E0.03023
G1 X115.982 Y130.679 E0.03027
G1 X115.119 Y130.360 E0.03027
G1 X114.269 Y130.011 E0.03027
G1 X113.430 Y129.635 E0.03027
G1 X112.605 Y129.230 E0.03027
G1 X111.798 Y128.800 E0.03009
G1 X110.992 Y128.335 E0.03063
G1 X110.217 Y127.851 E0.03009
G1 X109.454 Y127.339 E0.03027
G1 X108.708 Y126.801 E0.03027
G1 X107.981 Y126.238 E0.03027
G1 X107.273 Y125.651 E0.03027
G1 X106.586 Y125.041 E0.03027
G1 X105.920 Y124.407 E0.03027
G1 X105.275 Y123.752 E0.03027
G1 X104.653 Y123.075 E0.03027
G1 X104.054 Y122.377 E0.03027
G1 X103.479 Y121.660 E0.03027
G1 X102.929 Y120.923 E0.03027
G1 X102.404 Y120.169 E0.03027
G1 X101.904 Y119.397 E0.03027
G1 X101.431 Y118.609 E0.03027
G1 X100.985 Y117.805 E0.03027
G1 X100.566 Y116.986 E0.03027
G1 X100.175 Y116.154 E0.03027
G1 X99.813 Y115.309 E0.03027
G1 X99.479 Y114.453 E0.03027
G1 X99.174 Y113.585 E0.03027
G1 X98.899 Y112.708 E0.03027
G1 X98.654 Y111.822 E0.03027
G1 X98.438 Y110.928 E0.03027
G1 X98.253 Y110.028 E0.03027
G1 X98.099 Y109.121 E0.03027
G1 X97.975 Y108.210 E0.03027
G1 X97.882 Y107.296 E0.03027
G1 X97.820 Y106.379 E0.03027
G1 X97.789 Y105.460 E0.03027
G1 X97.789 Y104.540 E0.03027
G1 X97.820 Y103.621 E0.03027
G1 X97.882 Y102.704 E0.03027
G1 X97.975 Y101.790 E0.03027
G1 X98.099 Y100.879 E0.03027
G1 X98.253 Y99.972 E0.03027
G1 X98.438 Y99.072 E0.03027
G1 X98.654 Y98.178 E0.03027
G1 X98.899 Y97.292 E0.03027
G1 X99.174 Y96.415 E0.03027
G1 X99.479 Y95.547 E0.03027
G1 X99.812 Y94.692 E0.03023
G1 X100.387 Y93.396 E0.04666
G1 X100.985 Y92.194 E0.04421
G1 X101.431 Y91.391 E0.03023
G1 X101.904 Y90.603 E0.03027
G1 X102.404 Y89.831 E0.03027
G1 X102.929 Y89.077 E0.03027
G1 X103.479 Y88.340 E0.03027
G1 X103.972 Y87.725 E0.02596

G1 X104.404 Y87.745 F7200.000
G1 F5760
G1 X104.653 Y86.925 E-0.36375
G1 F5760
G1 X105.275 Y86.248 E-0.31843
G1 F5760
G1 X105.433 Y86.088 E-0.07783
G1 E-0.04000 F2100.00000
G1 X100.690 Y116.097 F7200.000
G1 E0.80000 F2100.00000
G1 F1680
G1 X113.553 Y128.960 E0.60253
G1 X114.539 Y129.409 E0.03586
G1 X100.600 Y115.470 E0.65290
G1 X100.231 Y114.564 E0.03239
G1 X115.441 Y129.775 E0.71247
G1 X116.288 Y130.085 E0.02987
G1 X99.920 Y113.717 E0.76669
G1 X99.656 Y112.917 E0.02791
G1 X117.090 Y130.350 E0.81659
G1 X117.851 Y130.575 E0.02629
G1 X99.430 Y112.155 E0.86282
G1 X99.236 Y111.424 E0.02503
G1 X118.568 Y130.755 E0.90547
G1 X119.275 Y130.926 E0.02410
G1 X99.069 Y110.720 E0.94644
G1 X98.930 Y110.045 E0.02283
G1 X119.946 Y131.060 E0.98436
G1 X120.612 Y131.191 E0.02250
G1 X98.814 Y109.393 E1.02103
G1 X98.715 Y108.757 E0.02131
G1 X121.246 Y131.288 E1.05535
G1 X121.856 Y131.362 E0.02036
G1 X98.630 Y108.136 E1.08789
G1 X98.570 Y107.539 E0.01989
G1 X122.458 Y131.426 E1.11891
G1 X123.043 Y131.475 E0.01945
G1 X98.520 Y106.952 E1.14866
G1 X98.481 Y106.377 E0.01910
G1 X123.615 Y131.511 E1.17729
G1 X124.184 Y131.543 E0.01887
G1 X98.461 Y105.820 E1.20486
G1 X98.448 Y105.271 E0.01819
G1 X124.730 Y131.553 E1.23101
G1 X125.266 Y131.553 E0.01777
G1 X98.448 Y104.735 E1.25615
G1 X98.460 Y104.210 E0.01739
G1 X125.794 Y131.544 E1.28032
G1 X126.308 Y131.521 E0.01704
G1 X98.477 Y103.691 E1.30357
G1 X98.510 Y103.187 E0.01672
G1 X126.818 Y131.495 E1.32592
G1 X127.312 Y131.453 E0.01644
G1 X98.547 Y102.687 E1.34738
G1 X98.596 Y102.200 E0.01621
G1 X127.803 Y131.407 E1.36806
G1 X128.283 Y131.350 E0.01599
G1 X98.650 Y101.718 E1.38799
G1 X98.715 Y101.246 E0.01579
G1 X128.757 Y131.288 E1.40718
G1 X129.222 Y131.217 E0.01559
G1 X98.785 Y100.779 E1.42568
G1 X98.863 Y100.321 E0.01540
G1 X129.679 Y131.137 E1.44341
G1 X130.126 Y131.048 E0.01511
G1 X98.948 Y99.869 E1.46039
G1 X99.039 Y99.424 E0.01505
G1 X130.574 Y130.959 E1.47707
G1 X131.011 Y130.859 E0.01485
G1 X99.138 Y98.986 E1.49294
G1 X99.242 Y98.554 E0.01473
G1 X131.441 Y130.753 E1.50823
G1 X131.872 Y130.647 E0.01468
G1 X99.352 Y98.128 E1.52322
G1 X99.469 Y97.708 E0.01444
G1 X132.292 Y130.531 E1.53747
G1 X132.703 Y130.405 E0.01422
G1 X99.590 Y97.293 E1.55100
G1 X99.718 Y96.884 E0.01418
G1 X133.113 Y130.279 E1.56423
G1 X133.517 Y130.147 E0.01408
G1 X99.851 Y96.480 E1.57695
G1 X99.990 Y96.083 E0.01394
G1 X133.913 Y130.006 E1.58894
G1 X134.308 Y129.865 E0.01390
G1 X100.132 Y95.689 E1.60080
G1 X100.282 Y95.303 E0.01372
G1 X134.701 Y129.721 E1.61218
G1 X135.082 Y129.566 E0.01362
G1 X100.434 Y94.918 E1.62292
G1 X100.599 Y94.546 E0.01347
G1 X135.463 Y129.410 E1.63303
G1 X135.833 Y129.244 E0.01345
G1 X100.764 Y94.174 E1.64267
G1 X100.928 Y93.802 E0.01347
G1 X136.203 Y129.078 E1.65229
G1 X136.566 Y128.903 E0.01332
G1 X101.102 Y93.440 E1.66112
G1 X101.281 Y93.082 E0.01325
