; generated by Slic3r 1.35.5.16-prusa3d-win64 on 2017-07-22 at 01:49:06

; 

; external perimeters extrusion width = 0.45mm
; perimeters extrusion width = 0.45mm
; infill extrusion width = 0.45mm
; solid infill extrusion width = 0.45mm
; top infill extrusion width = 0.40mm
; support material extrusion width = 0.35mm
; first layer extrusion width = 0.42mm

M107
M115 U3.0.9 ; tell printer latest fw version
M83  ; extruder relative mode
M104 S215 ; set extruder temp
M140 S55 ; set bed temp
M190 S55 ; wait for bed temp
M109 S215 ; wait for extruder temp
G28 W ; home all without mesh bed level
G80 ; mesh bed leveling
G1 Y-3.0 F1000.0 ; go outside pritn area
G1 X60.0 E9.0  F1000.0 ; intro line
G1 X100.0 E12.5  F1000.0 ; intro line
; Filament gcode

G21 ; set units to millimeters
G90 ; use absolute coordinates
M83 ; use relative distances for extrusion
M106 S216.75
G1 E-0.80000 F2100.00000
G1 Z0.200 F7200.000
G1 X178.465 Y133.534 F7200.000
G1 E0.80000 F2100.00000
M204 S1000
G1 F2100
G1 X157.732 Y134.850 E0.68394
G1 X92.744 Y135.205 E2.13956
G1 X89.664 Y134.892 E0.10194
G1 X87.704 Y134.524 E0.06565
G1 X85.736 Y134.017 E0.06690
G1 X83.810 Y133.381 E0.06677
G1 X81.963 Y132.631 E0.06564
G1 X79.182 Y131.217 E0.10270
G1 X76.679 Y129.609 E0.09794
G1 X75.034 Y128.347 E0.06827
G1 X72.812 Y126.323 E0.09894
G1 X71.403 Y124.806 E0.06815
G1 X70.100 Y123.193 E0.06827
G1 X68.413 Y120.706 E0.09895
G1 X67.398 Y118.898 E0.06827
G1 X66.165 Y116.199 E0.09769
G1 X65.464 Y114.247 E0.06827
G1 X64.899 Y112.256 E0.06814
G1 X64.329 Y109.340 E0.09782
G1 X64.099 Y107.248 E0.06928
G1 X64.024 Y104.278 E0.09781
G1 X64.145 Y102.208 E0.06827
G1 X64.571 Y99.233 E0.09894
G1 X65.035 Y97.212 E0.06827
G1 X65.953 Y94.350 E0.09894
G1 X66.748 Y92.438 E0.06815
G1 X67.673 Y90.583 E0.06827
G1 X69.235 Y88.015 E0.09895
G1 X70.458 Y86.340 E0.06827
G1 X72.428 Y84.070 E0.09895
G1 X73.911 Y82.626 E0.06815
G1 X76.204 Y80.737 E0.09781
G1 X77.906 Y79.559 E0.06815
G1 X79.688 Y78.498 E0.06827
G1 X82.359 Y77.197 E0.09782
G1 X84.321 Y76.436 E0.06928
G1 X87.172 Y75.599 E0.09781
G1 X89.203 Y75.182 E0.06827
G1 X92.188 Y74.828 E0.09894
G1 X94.260 Y74.757 E0.06827
G1 X164.373 Y75.137 E2.30827
G1 X165.895 Y75.516 E0.05166
G1 X168.669 Y76.542 E0.09736
G1 X170.527 Y77.408 E0.06747
G1 X172.289 Y78.378 E0.06622
G1 X174.810 Y80.052 E0.09962
G1 X177.149 Y81.966 E0.09950
G1 X179.286 Y84.103 E0.09949
G1 X181.179 Y86.414 E0.09836
G1 X182.872 Y88.959 E0.10062
G1 X184.269 Y91.595 E0.09824
G1 X185.414 Y94.392 E0.09949
G1 X186.052 Y96.428 E0.07023
G1 X186.119 Y96.979 E0.01827
G1 X186.115 Y112.114 E0.49829
G1 X184.673 Y127.047 E0.49391
G1 X184.566 Y127.537 E0.01652
G1 X184.356 Y127.997 E0.01665
G1 X184.010 Y128.450 E0.01876
G1 X179.498 Y132.965 E0.21013
G1 X179.019 Y133.314 E0.01951
G1 X178.521 Y133.512 E0.01766

G1 F5760
G1 X176.331 Y133.653 E-0.76000
G1 E-0.04000 F2100.00000
G1 X182.310 Y126.788 F7200.000
G1 E0.80000 F2100.00000
G1 F2100
G1 X182.310 Y118.381 E0.27676
G1 X181.599 Y118.381 E0.02339
G1 X181.556 Y118.457 E0.00288
G1 X181.556 Y126.618 E0.26868
G1 X180.802 Y126.618 E0.02483
G1 X180.802 Y119.719 E0.22713
G1 X180.048 Y120.848 E0.04470
G1 X180.048 Y128.925 E0.26591
G1 X179.293 Y128.925 E0.02483
G1 X179.293 Y121.870 E0.23226
G1 X178.539 Y122.809 E0.03964
G1 X178.539 Y128.925 E0.20136
G1 X177.871 Y128.925 E0.02199
G1 X177.871 Y131.232 E0.07595
G1 X177.785 Y131.232 E0.00284
G1 X177.785 Y123.672 E0.24891
G1 X177.031 Y124.464 E0.03602
G1 X177.031 Y131.232 E0.22282
G1 X176.277 Y131.232 E0.02483
G1 X176.277 Y125.200 E0.19858
G1 X175.523 Y125.885 E0.03354
G1 X175.523 Y131.232 E0.17604
G1 X174.768 Y131.232 E0.02483
G1 X174.768 Y126.523 E0.15503
G1 X174.014 Y127.119 E0.03163
G1 X174.014 Y131.232 E0.13543
G1 X173.260 Y131.232 E0.02483
G1 X173.260 Y127.674 E0.11714
G1 X172.506 Y128.193 E0.03013
G1 X172.506 Y131.232 E0.10007
G1 X171.752 Y131.232 E0.02483
G1 X171.752 Y128.677 E0.08413
G1 X170.998 Y129.129 E0.02894
G1 X170.998 Y131.232 E0.06925
G1 X170.243 Y131.232 E0.02483
G1 X170.243 Y129.550 E0.05538
G1 X169.489 Y129.943 E0.02799
G1 X169.489 Y131.181 E0.04077

G1 F5760
G1 X169.489 Y129.943 E-0.42894
G1 F5760
G1 X170.243 Y129.550 E-0.29449
G1 F5760
G1 X170.243 Y129.656 E-0.03657
G1 E-0.04000 F2100.00000
G1 X133.290 Y88.708 F7200.000
G1 E0.80000 F2100.00000
G1 F2100
G1 X133.290 Y81.461 E0.23859
G1 X134.044 Y81.463 E0.02483
G1 X134.044 Y87.358 E0.19409
G1 X134.798 Y86.401 E0.04013
G1 X134.798 Y81.465 E0.16248
G1 X135.028 Y81.466 E0.00758
G1 X135.028 Y79.161 E0.07590
G1 X135.552 Y79.161 E0.01725
G1 X135.552 Y85.519 E0.20932
G1 X136.306 Y84.708 E0.03646
G1 X136.306 Y79.161 E0.18261
G1 X137.060 Y79.161 E0.02483
G1 X137.060 Y83.958 E0.15794
G1 X137.815 Y83.261 E0.03381
G1 X137.815 Y79.161 E0.13499
G1 X138.569 Y79.161 E0.02483
G1 X138.569 Y82.611 E0.11360
G1 X139.323 Y82.006 E0.03185
G1 X139.323 Y79.161 E0.09366
G1 X140.077 Y79.161 E0.02483
G1 X140.077 Y81.440 E0.07505
G1 X140.831 Y80.913 E0.03031
G1 X140.831 Y79.161 E0.05767
G1 X141.585 Y79.161 E0.02483
G1 X141.585 Y80.619 E0.04801

G1 F5760
G1 X141.585 Y79.161 E-0.50514
G1 F5760
G1 X140.850 Y79.161 E-0.25486
G1 E-0.04000 F2100.00000
G1 X166.678 Y96.401 F7200.000
G1 E0.80000 F2100.00000
G1 F1680
G1 X166.678 Y112.576 E0.53249
G1 X182.955 Y112.576 E0.53590
G1 X182.628 Y113.576 E0.03465
G1 X182.310 Y114.433 E0.03011
G1 X181.964 Y115.280 E0.03011
G1 X181.590 Y116.114 E0.03011
G1 X181.189 Y116.936 E0.03011
G1 X180.760 Y117.744 E0.03011
G1 X180.304 Y118.537 E0.03011
G1 X179.823 Y119.314 E0.03011
G1 X179.315 Y120.075 E0.03011
G1 X178.783 Y120.818 E0.03011
G1 X178.226 Y121.543 E0.03011
G1 X177.645 Y122.250 E0.03011
G1 X177.041 Y122.936 E0.03011
G1 X176.433 Y123.583 E0.02924
G1 X175.766 Y124.247 E0.03098
G1 X175.097 Y124.870 E0.03010
G1 X174.426 Y125.453 E0.02924
G1 X173.697 Y126.047 E0.03098
G1 X172.968 Y126.600 E0.03010
G1 X172.222 Y127.128 E0.03011
G1 X171.458 Y127.631 E0.03011
G1 X170.678 Y128.108 E0.03011
G1 X169.883 Y128.559 E0.03011
G1 X169.096 Y128.971 E0.02924
G1 X168.248 Y129.380 E0.03098
G1 X167.412 Y129.749 E0.03010
G1 X166.563 Y130.090 E0.03011
G1 X165.704 Y130.403 E0.03011
G1 X164.835 Y130.686 E0.03011
G1 X163.956 Y130.941 E0.03011
G1 X163.070 Y131.166 E0.03011
G1 X162.177 Y131.362 E0.03011
G1 X161.277 Y131.527 E0.03011
G1 X160.399 Y131.659 E0.02924
G1 X159.464 Y131.768 E0.03098
G1 X158.553 Y131.843 E0.03010
G1 X157.640 Y131.887 E0.03011
G1 X156.726 Y131.901 E0.03011
G1 X155.811 Y131.885 E0.03011
G1 X154.898 Y131.838 E0.03011
G1 X153.987 Y131.760 E0.03011
G1 X153.079 Y131.652 E0.03011
G1 X152.175 Y131.514 E0.03011
G1 X151.276 Y131.346 E0.03011
G1 X150.383 Y131.148 E0.03011
G1 X149.497 Y130.920 E0.03011
G1 X148.620 Y130.663 E0.03011
G1 X147.751 Y130.377 E0.03011
G1 X146.893 Y130.062 E0.03011
G1 X146.045 Y129.719 E0.03011
G1 X145.210 Y129.347 E0.03011
G1 X144.411 Y128.959 E0.02924
G1 X143.578 Y128.521 E0.03098
G1 X142.784 Y128.068 E0.03010
G1 X142.028 Y127.603 E0.02924
G1 X141.243 Y127.083 E0.03098
G1 X140.498 Y126.553 E0.03010
G1 X139.771 Y125.998 E0.03011
G1 X139.063 Y125.420 E0.03011
G1 X138.395 Y124.835 E0.02924
G1 X137.707 Y124.193 E0.03098
G1 X137.060 Y123.546 E0.03010
G1 X136.436 Y122.878 E0.03011
G1 X135.834 Y122.190 E0.03011
G1 X135.255 Y121.482 E0.03011
G1 X134.700 Y120.755 E0.03011
G1 X134.170 Y120.010 E0.03011
G1 X133.664 Y119.248 E0.03011
G1 X133.185 Y118.469 E0.03011
G1 X132.732 Y117.675 E0.03011
G1 X132.305 Y116.866 E0.03011
G1 X131.906 Y116.043 E0.03011
G1 X131.535 Y115.208 E0.03011
G1 X131.191 Y114.360 E0.03011
G1 X130.876 Y113.502 E0.03011
G1 X130.590 Y112.633 E0.03011
G1 X130.333 Y111.756 E0.03011
G1 X130.105 Y110.870 E0.03011
G1 X129.907 Y109.977 E0.03011
G1 X129.739 Y109.078 E0.03011
G1 X129.601 Y108.174 E0.03011
G1 X129.493 Y107.266 E0.03011
G1 X129.415 Y106.355 E0.03011
G1 X129.370 Y105.468 E0.02924
G1 X129.352 Y104.527 E0.03098
G1 X129.366 Y103.613 E0.03010
G1 X129.409 Y102.726 E0.02924
G1 X129.485 Y101.788 E0.03098
G1 X129.590 Y100.880 E0.03010
G1 X129.726 Y99.976 E0.03011
G1 X129.891 Y99.076 E0.03011
G1 X130.087 Y98.183 E0.03011
G1 X130.312 Y97.297 E0.03011
G1 X130.567 Y96.418 E0.03011
G1 X130.850 Y95.549 E0.03011
G1 X131.154 Y94.715 E0.02924
G1 X131.504 Y93.841 E0.03098
G1 X131.873 Y93.005 E0.03010
G1 X132.259 Y92.205 E0.02924
G1 X132.694 Y91.370 E0.03098
G1 X133.145 Y90.575 E0.03010
G1 X133.609 Y89.818 E0.02924
G1 X134.126 Y89.031 E0.03098
G1 X134.654 Y88.285 E0.03010
G1 X135.190 Y87.577 E0.02924
G1 X135.783 Y86.846 E0.03098
G1 X136.383 Y86.157 E0.03010
G1 X136.988 Y85.506 E0.02924
G1 X137.651 Y84.838 E0.03098
G1 X138.317 Y84.212 E0.03010
G1 X139.003 Y83.608 E0.03011
G1 X139.710 Y83.027 E0.03011
G1 X140.435 Y82.470 E0.03011
G1 X141.178 Y81.938 E0.03011
G1 X141.939 Y81.430 E0.03011
G1 X142.717 Y80.949 E0.03011
G1 X143.487 Y80.506 E0.02924
G1 X144.318 Y80.064 E0.03098
G1 X145.139 Y79.663 E0.03010
G1 X145.949 Y79.300 E0.02924
G1 X146.820 Y78.943 E0.03098
G1 X147.677 Y78.626 E0.03010
G1 X148.678 Y78.298 E0.03465
G1 X148.678 Y87.576 E0.30545
G1 X164.852 Y87.576 E0.53249
G1 X164.852 Y78.298 E0.30545
G1 X164.954 Y78.328 E0.00352
G1 X165.843 Y78.622 E0.03081
G1 X166.695 Y78.938 E0.02993
G1 X167.537 Y79.281 E0.02994
G1 X168.368 Y79.652 E0.02994
G1 X169.185 Y80.051 E0.02994
G1 X169.989 Y80.476 E0.02994
G1 X170.778 Y80.928 E0.02994
G1 X171.552 Y81.406 E0.02994
G1 X172.309 Y81.909 E0.02994
G1 X173.050 Y82.437 E0.02994
G1 X173.772 Y82.989 E0.02994
G1 X174.476 Y83.565 E0.02994
G1 X175.160 Y84.164 E0.02994
G1 X175.824 Y84.786 E0.02994
G1 X176.467 Y85.429 E0.02994
G1 X177.089 Y86.093 E0.02994
G1 X177.670 Y86.757 E0.02907
G1 X178.264 Y87.481 E0.03081
G1 X178.816 Y88.203 E0.02993
G1 X179.344 Y88.944 E0.02994
G1 X179.847 Y89.701 E0.02994
G1 X180.325 Y90.475 E0.02994
G1 X180.777 Y91.264 E0.02994
G1 X181.202 Y92.068 E0.02994
G1 X181.601 Y92.885 E0.02994
G1 X181.972 Y93.716 E0.02994
G1 X182.316 Y94.558 E0.02994
G1 X182.631 Y95.411 E0.02994
G1 X182.956 Y96.401 E0.03432
G1 X166.738 Y96.401 E0.53393

G1 X167.055 Y96.778 F7200.000
G1 F1260
G1 X167.055 Y112.198 E0.50766
G1 X183.460 Y112.198 E0.54011
G1 X183.276 Y112.821 E0.02138
G1 X182.983 Y113.701 E0.03052
G1 X182.661 Y114.570 E0.03052
G1 X182.311 Y115.428 E0.03052
G1 X181.932 Y116.274 E0.03052
G1 X181.525 Y117.107 E0.03052
G1 X181.090 Y117.926 E0.03052
G1 X180.628 Y118.730 E0.03052
G1 X180.140 Y119.518 E0.03052
G1 X179.626 Y120.289 E0.03052
G1 X179.086 Y121.043 E0.03052
G1 X178.521 Y121.778 E0.03052
G1 X177.932 Y122.494 E0.03052
G1 X177.320 Y123.190 E0.03052
G1 X176.703 Y123.846 E0.02964
G1 X176.027 Y124.519 E0.03140
G1 X175.349 Y125.150 E0.03052
G1 X174.669 Y125.741 E0.02964
G1 X173.930 Y126.344 E0.03140
G1 X173.191 Y126.904 E0.03052
G1 X172.435 Y127.439 E0.03052
G1 X171.660 Y127.949 E0.03052
G1 X170.869 Y128.433 E0.03052
G1 X170.063 Y128.890 E0.03052
G1 X169.265 Y129.308 E0.02964
G1 X168.406 Y129.722 E0.03140
G1 X167.558 Y130.097 E0.03052
G1 X166.698 Y130.442 E0.03052
G1 X165.827 Y130.759 E0.03052
G1 X164.946 Y131.047 E0.03052
G1 X164.055 Y131.305 E0.03052
G1 X163.157 Y131.533 E0.03052
G1 X162.251 Y131.731 E0.03052
G1 X161.340 Y131.899 E0.03052
G1 X160.449 Y132.033 E0.02964
G1 X159.502 Y132.143 E0.03140
G1 X158.578 Y132.219 E0.03052
G1 X157.652 Y132.264 E0.03052
G1 X156.725 Y132.278 E0.03052
G1 X155.798 Y132.262 E0.03052
G1 X154.872 Y132.214 E0.03052
G1 X153.949 Y132.135 E0.03052
G1 X153.028 Y132.026 E0.03052
G1 X152.112 Y131.886 E0.03052
G1 X151.200 Y131.716 E0.03052
G1 X150.295 Y131.515 E0.03052
G1 X149.397 Y131.284 E0.03052
G1 X148.508 Y131.023 E0.03052
G1 X147.627 Y130.733 E0.03052
G1 X146.757 Y130.414 E0.03052
G1 X145.898 Y130.066 E0.03052
G1 X145.051 Y129.689 E0.03052
G1 X144.241 Y129.296 E0.02964
G1 X143.397 Y128.852 E0.03140
G1 X142.592 Y128.393 E0.03052
G1 X141.825 Y127.920 E0.02964
G1 X141.029 Y127.394 E0.03140
G1 X140.274 Y126.857 E0.03052
G1 X139.537 Y126.294 E0.03052
G1 X138.819 Y125.708 E0.03052
G1 X138.142 Y125.115 E0.02964
G1 X137.445 Y124.464 E0.03140
G1 X136.789 Y123.808 E0.03052
G1 X136.156 Y123.131 E0.03052
G1 X135.546 Y122.434 E0.03052
G1 X134.959 Y121.716 E0.03052
G1 X134.396 Y120.979 E0.03052
G1 X133.859 Y120.224 E0.03052
G1 X133.347 Y119.451 E0.03052
G1 X132.861 Y118.662 E0.03052
G1 X132.401 Y117.856 E0.03052
G1 X131.969 Y117.036 E0.03052
G1 X131.564 Y116.202 E0.03052
G1 X131.187 Y115.355 E0.03052
G1 X130.839 Y114.496 E0.03052
G1 X130.520 Y113.626 E0.03052
G1 X130.230 Y112.745 E0.03052
G1 X129.969 Y111.856 E0.03052
G1 X129.738 Y110.958 E0.03052
G1 X129.537 Y110.053 E0.03052
G1 X129.367 Y109.142 E0.03052
G1 X129.227 Y108.225 E0.03052
G1 X129.118 Y107.305 E0.03052
G1 X129.039 Y106.381 E0.03052
G1 X128.993 Y105.482 E0.02964
G1 X128.975 Y104.528 E0.03140
G1 X128.989 Y103.601 E0.03052
G1 X129.033 Y102.702 E0.02964
G1 X129.110 Y101.751 E0.03140
G1 X129.217 Y100.830 E0.03052
G1 X129.354 Y99.914 E0.03052
G1 X129.522 Y99.002 E0.03052
G1 X129.720 Y98.096 E0.03052
G1 X129.948 Y97.198 E0.03052
G1 X130.206 Y96.307 E0.03052
G1 X130.494 Y95.426 E0.03052
G1 X130.802 Y94.580 E0.02964
G1 X131.157 Y93.695 E0.03140
G1 X131.531 Y92.847 E0.03052
G1 X131.922 Y92.035 E0.02964
G1 X132.363 Y91.190 E0.03140
G1 X132.820 Y90.384 E0.03052
G1 X133.290 Y89.616 E0.02964
G1 X133.814 Y88.819 E0.03140
G1 X134.349 Y88.062 E0.03052
G1 X134.894 Y87.345 E0.02964
G1 X135.494 Y86.604 E0.03140
G1 X136.103 Y85.904 E0.03052
G1 X136.716 Y85.245 E0.02964
G1 X137.388 Y84.568 E0.03140
G1 X138.063 Y83.933 E0.03052
G1 X138.759 Y83.321 E0.03052
G1 X139.475 Y82.732 E0.03052
G1 X140.210 Y82.167 E0.03052
G1 X140.964 Y81.628 E0.03052
G1 X141.735 Y81.113 E0.03052
G1 X142.523 Y80.625 E0.03052
G1 X143.304 Y80.176 E0.02964
G1 X144.146 Y79.729 E0.03140
G1 X144.979 Y79.321 E0.03052
G1 X145.801 Y78.953 E0.02964
G1 X146.683 Y78.592 E0.03140
G1 X147.552 Y78.270 E0.03052
G1 X148.432 Y77.977 E0.03052
G1 X149.055 Y77.793 E0.02138
G1 X149.055 Y87.198 E0.30965
G1 X164.475 Y87.198 E0.50766
G1 X164.475 Y77.793 E0.30965
G1 X165.967 Y78.266 E0.05156
G1 X166.832 Y78.586 E0.03035
G1 X167.686 Y78.934 E0.03035
G1 X168.527 Y79.311 E0.03035
G1 X169.356 Y79.715 E0.03035
G1 X170.171 Y80.146 E0.03035
G1 X170.971 Y80.604 E0.03035
G1 X171.755 Y81.088 E0.03035
G1 X172.523 Y81.598 E0.03035
G1 X173.274 Y82.134 E0.03035
G1 X174.006 Y82.694 E0.03035
G1 X174.720 Y83.278 E0.03035
G1 X175.413 Y83.885 E0.03035
G1 X176.087 Y84.515 E0.03035
G1 X176.738 Y85.167 E0.03035
G1 X177.368 Y85.840 E0.03035
G1 X177.958 Y86.514 E0.02948
G1 X178.560 Y87.247 E0.03122
G1 X179.119 Y87.979 E0.03035
G1 X179.655 Y88.730 E0.03035
G1 X180.165 Y89.498 E0.03035
G1 X180.649 Y90.282 E0.03035
G1 X181.107 Y91.082 E0.03035
G1 X181.539 Y91.897 E0.03035
G1 X181.943 Y92.726 E0.03035
G1 X182.319 Y93.567 E0.03035
G1 X182.667 Y94.421 E0.03035
G1 X182.987 Y95.286 E0.03035
G1 X183.278 Y96.161 E0.03035
G1 X183.460 Y96.778 E0.02121
G1 X167.115 Y96.778 E0.53813

G1 X166.655 Y96.784 F7200.000
G1 F5760
G1 X167.106 Y98.973 E-0.76000
G1 E-0.04000 F2100.00000
G1 X178.116 Y87.479 F7200.000
G1 E0.80000 F2100.00000
G1 F1680
G1 X173.774 Y83.137 E0.20338

G1 F5760
G1 X175.325 Y84.688 E-0.76000
G1 E-0.04000 F2100.00000
G1 X171.821 Y81.720 F7200.000
G1 E0.80000 F2100.00000
G1 F1680
G1 X179.533 Y89.433 E0.36126

G1 F5760
G1 X177.981 Y87.881 E-0.76000
G1 E-0.04000 F2100.00000
G1 X180.403 Y90.839 F7200.000
G1 E0.80000 F2100.00000
G1 F1680
G1 X170.414 Y80.850 E0.46793

G1 F5760
G1 X171.965 Y82.401 E-0.76000
G1 E-0.04000 F2100.00000
G1 X169.230 Y80.202 F7200.000
G1 E0.80000 F2100.00000
G1 F1680
G1 X181.051 Y92.023 E0.55371

G1 F5760
G1 X179.499 Y90.472 E-0.76000
G1 E-0.04000 F2100.00000
G1 X181.558 Y93.067 F7200.000
G1 E0.80000 F2100.00000
G1 F1680
G1 X168.543 Y80.053 E0.60964
G1 X167.551 Y79.597 E0.03616
G1 X181.656 Y93.702 E0.66068
G1 X182.034 Y94.616 E0.03277
G1 X166.637 Y79.219 E0.72122
G1 X165.783 Y78.902 E0.03017
G1 X182.351 Y95.470 E0.77608
G1 X182.565 Y96.119 E0.02262
G1 X182.463 Y96.119 E0.00337
G1 X165.135 Y78.790 E0.81171
G1 X165.135 Y79.326 E0.01777
G1 X181.927 Y96.119 E0.78658
G1 X181.390 Y96.119 E0.01777
G1 X165.135 Y79.863 E0.76145
G1 X165.135 Y80.399 E0.01777
G1 X180.854 Y96.119 E0.73632
G1 X180.317 Y96.119 E0.01777
G1 X165.135 Y80.936 E0.71119
G1 X165.135 Y81.472 E0.01777
